X: 25878
T: Matt Hayes'
R: polka
M: 2/4
K: Gmajor
B/c/B/A/|G>D BG|d2 BG|GD B/c/B/A/|GB GD|
GD/G/ BG|d2 BG|BA EF|G2 GA/B/||
GD/G/ BG|d2 BG|GD B/c/B/A/|GB GD|
G>D BG|d2 BG|BA dA|G2||
GA/B/||g>d e/f/e/d/|Bd BG|FA e/f/e/d/|FA eA|
g>d e/f/e/d/|Bd BG|BA dA|G2 GA/B/||
g>d e/f/e/d/|Bd BG|FA e/f/e/d/|FA fA|
g>d e/f/e/d/|Bd BG|BA EF|G2||

